X: 12955
T: Fiddler's Lament
R: reel
M: 4/4
K: Gminor
D2|G6 A2|B6 d2|c2 B2 A2 G2|^F6 d2|
G4 g3 f|d6 e2|d2 c2 A2 B2|A6 D2|
G8|b4 a2 g2|b2 a2 g2 f2|d6 c2|
B6 B2|A2 G2 B2 d2|c2 d2 e2 ^f2|g2 db agdB|b6 d'2|
c'2 b2 a2 g2|^f6 gf|edcB G2 B2|A6 (3ABc|
B2 g2- g2 ^f2|g6 ba|gf ed c2 B2|b6 d'c'|bagf e3 d|
d2 cd B4-|B6 AG|^FAce g3 =f|d2 cA B4|AG A3 G|G6||

